X: 4796
T: Boys Of The Lough, The
R: reel
M: 4/4
K: Dmajor
AF~F2 A3B|d2fd efdB|AF~F2 BFAF|EDEF E3F|
AF~F2 A3B|d2fd efdB|AF~F2 BFAF|EDEF D3z:|
faag ~f3e|d2fd efdB|AF~F2 BFAF|EDEF E3z|
faag ~f3e|d2fd efdB|AF~F2 BFAF|EDEF D3z:|
A2FA DAFA|defd efdB|A2FA dBAF|EDEF E3F|
A2FA DAFA|defd efdB|A2FA dBAF|EDEF D3z:|
f2ag fgfe|defd efdB|A2FA dBAF|EDEF E3z|
f2ag fgfe|defd efdB|A2FA dBAF|EDEF D3z:|

